X: 30390
T: Old Rocking Chair
R: jig
M: 6/8
K: Gmajor
|:DC|B,2D C2E|D2B BAB|c2A AGA|BGE D2C|
B,2D C2E|D2B BAB|cAF DEF|1 GBA G:|2 G3 G||
|:Bc|d3 ded|cAB c2c|Bcd GBd|cBc ABc|
d3 ded|cAB c2c|BdB cAF|DGF G:|

